release/img/categories/cart_hover.svg

<svg width="299" height="311" viewBox="0 0 299 311" fill="none" xmlns="http://www.w3.org/2000/svg">
<path d="M152.164 189.844C74.1641 155.443 18.6641 104.344 0.000183105 0.844238C0.000183105 83.1409 0.000183105 266.374 0.000183105 304.109C0.000183105 307.975 3.13419 310.985 7.00018 310.985H291.664C295.53 310.985 298.703 307.828 298.323 303.981C293.032 250.49 226.967 222.836 152.164 189.844Z" fill="#4D83D3"/>
<path d="M194.59 165.199C220.518 168.265 216.457 147.191 196.143 120.898C148.454 64.3901 92.3425 63.5156 83.484 64.0252C74.6256 64.5348 61.0022 61.4443 92.1802 106.255C123.358 151.065 168.661 162.132 194.59 165.199Z" fill="#4D83D3"/>
<circle r="11.5707" transform="matrix(-0.990225 -0.139479 -0.139479 0.990225 234.995 172.439)" fill="#4D83D3"/>
</svg>

<svg width="299" height="311" fill="none" xmlns="http://www.w3.org/2000/svg"><path d="M152.164 189.844c-78-34.401-133.5-85.5-152.164-189V304.11c0 3.866 3.134 6.876 7 6.876h284.664c3.866 0 7.039-3.157 6.659-7.004-5.291-53.491-71.356-81.145-146.159-114.137z" fill="#4D83D3"/><path d="M194.59 165.199c25.928 3.066 21.867-18.008 1.553-44.301-47.689-56.508-103.8-57.382-112.659-56.873-8.858.51-22.482-2.58 8.696 42.23 31.178 44.81 76.481 55.877 102.41 58.944z" fill="#4D83D3"/><circle r="11.571" transform="scale(-1 1) rotate(-8.018 1112.768 1762.79)" fill="#4D83D3"/></svg>
